modules/outlined-icons/icons/dialogue_think.svg

<svg xmlns="http://www.w3.org/2000/svg" width="64" height="64" viewBox="0 0 64 64"><path d="M32 32c3.309 0 6-2.691 6-6s-2.691-6-6-6-6 2.691-6 6 2.691 6 6 6zm0-8c1.103 0 2 .897 2 2s-.897 2-2 2-2-.897-2-2 .897-2 2-2zM16 32c3.309 0 6-2.691 6-6s-2.691-6-6-6-6 2.691-6 6 2.691 6 6 6zm0-8c1.103 0 2 .897 2 2s-.897 2-2 2-2-.897-2-2 .897-2 2-2zM48 32c3.309 0 6-2.691 6-6s-2.691-6-6-6-6 2.691-6 6 2.691 6 6 6zm0-8c1.103 0 2 .897 2 2s-.897 2-2 2-2-.897-2-2 .897-2 2-2z"/><path d="M62 3H2a2 2 0 0 0-2 2v42a2 2 0 0 0 2 2h14v10a2 2 0 0 0 3.302 1.519L32.74 49H62a2 2 0 0 0 2-2V5a2 2 0 0 0-2-2zm-2 42H32c-.478 0-.939.171-1.302.481L20 54.651V47a2 2 0 0 0-2-2H4V7h56v38z"/></svg>

<?xml version="1.0" encoding="utf-8"?>
<!-- Generator: Adobe Illustrator 16.0.0, SVG Export Plug-In . SVG Version: 6.00 Build 0)  -->
<!DOCTYPE svg PUBLIC "-//W3C//DTD SVG 1.1//EN" "http://www.w3.org/Graphics/SVG/1.1/DTD/svg11.dtd">
<svg version="1.1" id="Ebene_1" xmlns="http://www.w3.org/2000/svg" xmlns:xlink="http://www.w3.org/1999/xlink" x="0px" y="0px"
	 width="64px" height="64px" viewBox="0 0 64 64" enable-background="new 0 0 64 64" xml:space="preserve">
<g>
	<path d="M32,32c3.309,0,6-2.691,6-6s-2.691-6-6-6s-6,2.691-6,6S28.691,32,32,32z M32,24c1.103,0,2,0.897,2,2s-0.897,2-2,2
		s-2-0.897-2-2S30.897,24,32,24z"/>
	<path d="M16,32c3.309,0,6-2.691,6-6s-2.691-6-6-6s-6,2.691-6,6S12.691,32,16,32z M16,24c1.103,0,2,0.897,2,2s-0.897,2-2,2
		s-2-0.897-2-2S14.897,24,16,24z"/>
	<path d="M48,32c3.309,0,6-2.691,6-6s-2.691-6-6-6s-6,2.691-6,6S44.691,32,48,32z M48,24c1.103,0,2,0.897,2,2s-0.897,2-2,2
		s-2-0.897-2-2S46.897,24,48,24z"/>
	<path d="M62,3H2C0.896,3,0,3.896,0,5v42c0,1.104,0.896,2,2,2h14v10c0,0.781,0.455,1.491,1.164,1.817C17.432,60.94,17.716,61,18,61
		c0.469,0,0.933-0.165,1.302-0.481L32.74,49H62c1.104,0,2-0.896,2-2V5C64,3.896,63.104,3,62,3z M60,45H32
		c-0.478,0-0.939,0.171-1.302,0.481L20,54.651V47c0-1.104-0.896-2-2-2H4V7h56V45z"/>
</g>
</svg>
